symbols/web/live_tv/materialsymbolsoutlined/live_tv_wght200gradN25fill1_24px.svg

<svg xmlns="http://www.w3.org/2000/svg" height="24" width="24"><path d="m10.05 14.5 5.425-3.475-5.425-3.5Zm-.95 5.35v-1.975H4.7q-.65 0-1.1-.45-.45-.45-.45-1.075V5.675q0-.65.45-1.088.45-.437 1.1-.437h14.6q.65 0 1.1.437.45.438.45 1.088V16.35q0 .625-.45 1.075-.45.45-1.1.45h-4.4v1.975Z"/></svg>

<svg xmlns="http://www.w3.org/2000/svg" height="24" width="24"><path d="M10.05 14.5 15.475 11.025 10.05 7.525ZM9.1 19.85V17.875H4.7Q4.05 17.875 3.6 17.425Q3.15 16.975 3.15 16.35V5.675Q3.15 5.025 3.6 4.587Q4.05 4.15 4.7 4.15H19.3Q19.95 4.15 20.4 4.587Q20.85 5.025 20.85 5.675V16.35Q20.85 16.975 20.4 17.425Q19.95 17.875 19.3 17.875H14.9V19.85Z"/></svg>
